X: 636
T: Xiaogufu shangfeng
%%abc-version 2.0
%%abcx-abcm2ps-target-version 5.9.1 (29 Sep 2008)
%%abc-creator hum2abc beta
%%abcx-conversion-date 2013/10/02 07:52:30
%%abc-edited-by Helmut Schaffrath
%%humdrum-veritas 3546014785
%%humdrum-veritas-data 3131115163
%%continueall 1
%%barnumbers 0
L: 1/16
M: 2/4
K: Eb
e2> G2B4 [I:setbarnb 1]| 
e2> G2B4 | 
f2 f g f e c2 | 
B2> F2B4 | 
f g f e f g f e | 
B2 c B A2 F2 | 
e e2 B e G2 F | 
E8 |]  



